X: 37
T: Czasu gniewu i czasu Twej popędliwości
C: Mikołaj Gomółka
%%abc-version 2.0
%%abcx-abcm2ps-target-version 5.9.1 (29 Sep 2008)
%%abc-creator hum2abc beta
%%abcx-conversion-date 2021/10/04 07:59:09
%%abc-edited-by Anna Matuszewska
%%abcx-initial-encoding-date 2020-02-07
%%humdrum-veritas 2926030095
%%humdrum-veritas-data 897703083
%%linebreak <none>
%%barnumbers 0
L: 1/4
M: C|
N: Derived from pl-wn--sd-xvi-qu-273--038_gomolka-mikolaj--czasu-gniewu-i-czasu-twej-popedliwosci.krn
%%staves [1 2 3 4]
V: 1
V: 2 clef=alto
V: 3 clef=tenor
V: 4 clef=bass
K: F
[V:1] D4F2G2 [|] 
[V:2] D4D3E [|] 
[V:3] A,4B,2B,2 [|] 
[V:4] D,4B,,2G,,2 [|] 
[V:1] A2A2A2B2 [|] 
[V:2] F2>G2A2GF [|] 
[V:3] A,2D2C2B,2 [|] 
[V:4] D,2D,2F,2G,2 [|] 
[V:1] A2cBAGG4 [|] 
[V:2] ED/E/F2>E2DCx2 [|] 
[V:3] C2A,B,CB,A,G,x2 [|] 
[V:4] A,2F,2F,2G,2x2 [|] 
[V:1] x2F2G4 [|] 
[V:2] D2>C2B,4 [|] 
[V:3] A,4G,4 [|] 
[V:4] D,4G,,4 [|] 
[V:1] z2B2B2A2 [|] 
[V:2] z2G,A,B,CDC/D/ [|] 
[V:3] z2D2D2A,B, [|] 
[V:4] z2G,2G,2F,2 [|] 
[V:1] GFFE/D/E4 [|] 
[V:2] EDDC/B,/^CD2C [|] 
[V:3] C2A,2A,3G, [|] 
[V:4] C,2D,2A,,4 [|] 
[V:1] D2F2=ED^CB, [|] 
[V:2] D2C2B,2B,2 [|] 
[V:3] F,2A,2G,3F, [|] 
[V:4] B,,2F,,2G,,2G,,2 [|] 
[V:1] ^CD2^CD2B2 [|] 
[V:2] A,4A,2F2 [|] 
[V:3] E,D,E,2D,2D2 [|] 
[V:4] A,,2A,,2D,2B,,C, [|] 
[V:1] B2A2G4 [|] 
[V:2] F2F2D4 [|] 
[V:3] D2C2B,4 [|] 
[V:4] D,E,F,2G,2G,,2 [|] 
[V:1] F2ABAGG4 [|] 
[V:2] D2F2_E2E2x2 [|] 
[V:3] A,2D2B,2C2x2 [|] 
[V:4] D,2D,2E,2C,2x2 [|] 
[V:1] x2F2G4 [|] 
[V:2] D2>C2B,4 [|] 
[V:3] A,4G,4 [|] 
[V:4] D,4!fermata!G,,4 [|] 


